**kern	**kern	**dynam
*part1	*part1	*part1
*staff2	*staff1	*
*I"Piano	*	*
*clefF4	*clefG2	*
*k[f#c#g#]	*k[f#c#g#]	*
*M2/4	*M2/4	*
=1	=1	=1
4AAA 4AA	4cc# 4ee 4aa 4ccc#	ff >
4BBB 4BB	4g# 4dd 4ee 4gg#	.
=	=	=
4CC# 4C#	8bL [8ee 8bb	.
.	8aJ 8ee] 8aa	.
8DDL 8D	8f#L 8a 8dd 8ff#	.
8BBBJ 8BB	8dJ 8f# 8b 8dd	.
=	=	=
4EE 4E	16c# 16e [16a 16cc#	]
*	*^	*
.	16r	16r	.
.	8r	8r	.
4EEE 4EE	16B 16e 16b	16a]	.
.	16r	16r	.
.	8r	16g#	.
.	.	16r	.
*	*v	*v	*
=	=	=
*8ba	*	*
2AAAA;	2A;: 2c#: 2e: 2a:	.
*X8ba	*	*
=!|:	=!|:	=!|:
2A	(4c# 4e	p
.	4d 4f#	.
=	=	=
4A	4.c# 4.e	.
4C#	.	.
.	8E< 8A<	.
=	=	=
*	*^	*
4.E	2B 2d	4A<	.
.	.	4G#<	.
[8E	.	.	.
*	*v	*v	*
=	=	=
*-	*-	*-
!!!system-decoration: {(s1,s2)}
!!!RDF**kern: < = below
